X: 10013
T: Dhannsamaid Le Ailean
R: slip jig
M: 9/8
K: Aminor
A3 A2c B2G|A2B c2d e3|A3 A2c B2A|G2d B3 A3:|
|:a2a a2g e2d|c2c c2d e2g|a2a a2g e2d|c/B/B2 d2c A3:|

